X:84
T:Saraband Sett Of Waltzes No.4. Le4.084
B:L.Leadley MS#4 c1850
Z:Village Music Project, 2016 Steve Mansfield
M:3/4
L:1/4
Q:3/4=60
K:C
F | (G^F)A | (Gce) | g2g | gfe |(d^c)e | dfg | a2a | (ag)f |
e2c' | (c'b)c' | d2a |B2g | g^fg | (cG)e | c2 ||
G | (G^F)A | (GBd) | f2f | fzG |(G^FA) | (Gce) | g2g | (gg)g |
(gf)f | (fe)e | (ed)d | d^cd |d2d | Aed | c2c | BzG |
(G^F)A | (Gce) | g2g | (gf)e |d^ce | (de)f | a2a | agf |
e2c' | (c'b)c' | d2a |(a^g)a | d2g | g^fg | (cG)e | c2 |]

